; generated by Slic3r 1.3.0 on 2023-08-19 at 23:50:35

; external perimeters extrusion width = 0.40mm (3.03mm^3/s)
; perimeters extrusion width = 0.40mm (3.03mm^3/s)
; infill extrusion width = 0.40mm (3.03mm^3/s)
; solid infill extrusion width = 0.40mm (3.03mm^3/s)
; top infill extrusion width = 0.40mm (3.03mm^3/s)

M107
M83
T0
M116


; Filament gcode

G21 ; set units to millimeters
G90 ; use absolute coordinates
M83 ; use relative distances for extrusion
G1 E-3.20000 F3000.00000
G1 Z0.400 F12000.000
G1 X-23.575 Y31.625 F12000.000
G1 Z0.350 F12000.000
G1 E3.20000 F3000.00000
G1 F480
G1 X-23.575 Y-42.880 E6.58564
G1 X-23.541 Y-43.580 E0.06192
G1 X-23.361 Y-44.703 E0.10057
G1 X-23.292 Y-44.979 E0.02513
G1 X-22.922 Y-46.054 E0.10049
G1 X-22.835 Y-46.249 E0.01886
G1 X-22.376 Y-47.109 E0.08615
G1 X-22.262 Y-47.289 E0.01886
G1 X-21.681 Y-48.072 E0.08616
G1 X-21.542 Y-48.233 E0.01886
G1 X-20.852 Y-48.923 E0.08616
G1 X-20.691 Y-49.062 E0.01886
G1 X-19.908 Y-49.643 E0.08615
G1 X-19.728 Y-49.757 E0.01886
G1 X-18.868 Y-50.216 E0.08616
G1 X-18.673 Y-50.303 E0.01886
G1 X-17.755 Y-50.631 E0.08616
G1 X-17.550 Y-50.688 E0.01886
G1 X-16.594 Y-50.878 E0.08615
G1 X-16.382 Y-50.904 E0.01886
G1 X-15.571 Y-50.954 E0.07182
G1 X15.570 Y-50.954 E2.75261
G1 X16.590 Y-50.879 E0.09041
G1 X17.706 Y-50.643 E0.10084
G1 X17.978 Y-50.560 E0.02512
G1 X19.033 Y-50.138 E0.10048
G1 X19.224 Y-50.042 E0.01886
G1 X20.192 Y-49.446 E0.10049
G1 X20.420 Y-49.276 E0.02513
G1 X21.382 Y-48.404 E0.11479
G1 X21.573 Y-48.194 E0.02513
G1 X22.262 Y-47.289 E0.10048
G1 X22.376 Y-47.109 E0.01886
G1 X22.899 Y-46.099 E0.10050
G1 X23.008 Y-45.837 E0.02512
G1 X23.385 Y-44.594 E0.11478
G1 X23.441 Y-44.315 E0.02512
G1 X23.568 Y-43.027 E0.11441
G1 X23.575 Y42.880 E7.59354
G1 X23.541 Y43.580 E0.06193
G1 X23.361 Y44.703 E0.10056
G1 X23.292 Y44.979 E0.02513
G1 X22.922 Y46.054 E0.10049
G1 X22.835 Y46.249 E0.01886
G1 X22.376 Y47.108 E0.08614
G1 X22.262 Y47.289 E0.01886
G1 X21.681 Y48.072 E0.08619
G1 X21.542 Y48.233 E0.01886
G1 X20.853 Y48.922 E0.08613
G1 X20.691 Y49.062 E0.01885
G1 X19.908 Y49.642 E0.08616
G1 X19.728 Y49.757 E0.01886
G1 X18.868 Y50.216 E0.08615
G1 X18.673 Y50.303 E0.01886
G1 X17.755 Y50.631 E0.08621
G1 X17.549 Y50.688 E0.01886
G1 X16.594 Y50.878 E0.08610
G1 X16.382 Y50.904 E0.01886
G1 X15.571 Y50.954 E0.07180
G1 X-15.499 Y50.956 E2.74638
G1 X-16.199 Y50.922 E0.06196
G1 X-17.322 Y50.742 E0.10055
G1 X-17.598 Y50.672 E0.02513
G1 X-18.673 Y50.303 E0.10051
G1 X-18.868 Y50.216 E0.01886
G1 X-19.728 Y49.757 E0.08616
G1 X-19.908 Y49.642 E0.01886
G1 X-20.691 Y49.062 E0.08615
G1 X-20.853 Y48.922 E0.01886
G1 X-21.542 Y48.233 E0.08613
G1 X-21.681 Y48.072 E0.01886
G1 X-22.262 Y47.289 E0.08619
G1 X-22.376 Y47.108 E0.01886
G1 X-22.835 Y46.249 E0.08612
G1 X-22.922 Y46.054 E0.01886
G1 X-23.250 Y45.136 E0.08618
G1 X-23.307 Y44.931 E0.01886
G1 X-23.497 Y43.975 E0.08615
G1 X-23.573 Y42.953 E0.09055
G1 X-23.575 Y31.685 E0.99602
G1 E-3.20000 F3000.00000
G1 Z0.750 F12000.000
G1 X-7.018 Y7.852 F12000.000
G1 Z0.350 F12000.000
G1 E3.20000 F3000.00000
G1 F480
G1 X-6.757 Y7.466 E0.04115
G1 X-6.449 Y7.134 E0.04008
G1 X-6.095 Y6.850 E0.04007
G1 X-5.702 Y6.623 E0.04007
G1 X-5.280 Y6.457 E0.04008
G1 X-4.838 Y6.356 E0.04007
G1 X-4.423 Y6.325 E0.03679
G1 X4.562 Y6.328 E0.79424
G1 X5.111 Y6.411 E0.04908
G1 X5.434 Y6.511 E0.02992
G1 X5.843 Y6.695 E0.03960
G1 X6.336 Y7.031 E0.05280
G1 X6.750 Y7.456 E0.05241
G1 X7.018 Y7.852 E0.04224
G1 X7.240 Y8.347 E0.04797
G1 X12.648 Y24.580 E1.51240
G1 X12.735 Y25.011 E0.03886
G1 X12.756 Y25.462 E0.03995
G1 X12.710 Y25.912 E0.03995
G1 X12.598 Y26.350 E0.03995
G1 X12.422 Y26.766 E0.03995
G1 X12.186 Y27.151 E0.03995
G1 X11.895 Y27.497 E0.03995
G1 X11.556 Y27.796 E0.03995
G1 X11.175 Y28.041 E0.04001
G1 X10.747 Y28.233 E0.04148
G1 X10.192 Y28.374 E0.05061
G1 X9.767 Y28.406 E0.03771
G1 X-9.755 Y28.406 E1.72553
G1 X-10.042 Y28.391 E0.02547
G1 X-10.482 Y28.314 E0.03946
G1 X-11.019 Y28.120 E0.05047
G1 X-11.316 Y27.958 E0.02993
G1 X-11.684 Y27.695 E0.03995
G1 X-12.079 Y27.290 E0.05002
G1 X-12.277 Y27.016 E0.02987
G1 X-12.488 Y26.630 E0.03887
G1 X-12.639 Y26.217 E0.03887
G1 X-12.706 Y25.923 E0.02663
G1 X-12.755 Y25.600 E0.02890
G1 X-12.754 Y25.287 E0.02769
G1 X-12.722 Y24.891 E0.03513
G1 X-12.642 Y24.562 E0.02991
G1 X-7.240 Y8.347 E1.51073
G1 X-7.043 Y7.906 E0.04266
G1 X-6.470 Y8.157 F12000.000
G1 F480
G1 X-6.266 Y7.856 E0.03217
G1 X-6.022 Y7.592 E0.03178
G1 X-5.741 Y7.368 E0.03178
G1 X-5.430 Y7.188 E0.03178
G1 X-5.095 Y7.056 E0.03178
G1 X-4.745 Y6.976 E0.03178
G1 X-4.400 Y6.950 E0.03057
G1 X4.515 Y6.953 E0.78801
G1 X4.971 Y7.021 E0.04079
G1 X5.213 Y7.096 E0.02234
G1 X5.536 Y7.242 E0.03134
G1 X5.932 Y7.512 E0.04239
G1 X6.264 Y7.853 E0.04199
G1 X6.470 Y8.157 E0.03256
G1 X6.657 Y8.574 E0.04036
G1 X12.043 Y24.740 E1.50619
G1 X12.113 Y25.087 E0.03129
G1 X12.130 Y25.445 E0.03168
G1 X12.093 Y25.802 E0.03168
G1 X12.004 Y26.149 E0.03168
G1 X11.865 Y26.479 E0.03168
G1 X11.677 Y26.785 E0.03168
G1 X11.447 Y27.059 E0.03168
G1 X11.178 Y27.296 E0.03168
G1 X10.876 Y27.490 E0.03170
G1 X10.541 Y27.641 E0.03250
G1 X10.091 Y27.755 E0.04100
G1 X9.743 Y27.781 E0.03084
G1 X-9.739 Y27.781 E1.72209
G1 X-9.973 Y27.769 E0.02068
G1 X-10.321 Y27.708 E0.03124
G1 X-10.762 Y27.548 E0.04148
G1 X-10.984 Y27.428 E0.02231
G1 X-11.275 Y27.219 E0.03168
G1 X-11.600 Y26.887 E0.04106
G1 X-11.747 Y26.682 E0.02229
G1 X-11.917 Y26.372 E0.03129
G1 X-12.038 Y26.039 E0.03129
G1 X-12.092 Y25.806 E0.02113
G1 X-12.130 Y25.555 E0.02248
G1 X-12.129 Y25.314 E0.02128
G1 X-12.103 Y24.989 E0.02877
G1 X-12.041 Y24.734 E0.02324
G1 X-6.657 Y8.574 E1.50559
G1 X-6.495 Y8.212 E0.03506
G1 X-6.470 Y8.157 F12000.000
G1 E-3.20000 F3000.00000
G1 Z0.750 F12000.000
G1 X-2.062 Y4.458 F12000.000
G1 Z0.350 F12000.000
G1 E3.20000 F3000.00000
G1 F300
G1 X-2.331 Y3.983 E0.04830
G1 X-2.480 Y3.501 E0.04453
G1 X-2.530 Y3.000 E0.04453
G1 X-2.480 Y2.499 E0.04453
G1 X-2.335 Y2.029 E0.04344
G1 X-2.151 Y1.671 E0.03556
G1 X-1.854 Y1.279 E0.04345
G1 X-1.477 Y0.946 E0.04453
G1 X-1.040 Y0.694 E0.04453
G1 X-0.563 Y0.534 E0.04453
G1 X-0.063 Y0.471 E0.04452
G1 X0.439 Y0.509 E0.04453
G1 X0.924 Y0.645 E0.04453
G1 X1.373 Y0.875 E0.04453
G1 X1.766 Y1.189 E0.04453
G1 X2.090 Y1.575 E0.04453
G1 X2.331 Y2.017 E0.04453
G1 X2.480 Y2.499 E0.04453
G1 X2.530 Y3.000 E0.04453
G1 X2.480 Y3.501 E0.04453
G1 X2.331 Y3.983 E0.04453
G1 X2.090 Y4.425 E0.04449
G1 X1.778 Y4.798 E0.04303
G1 X1.467 Y5.060 E0.03594
G1 X1.040 Y5.306 E0.04352
G1 X0.563 Y5.466 E0.04453
G1 X0.063 Y5.529 E0.04453
G1 X-0.439 Y5.491 E0.04453
G1 X-0.924 Y5.355 E0.04453
G1 X-1.373 Y5.125 E0.04453
G1 X-1.766 Y4.811 E0.04453
G1 X-2.024 Y4.504 E0.03539
G1 X-1.571 Y4.071 F12000.000
G1 F300
G1 X-1.752 Y3.739 E0.03347
G1 X-1.864 Y3.377 E0.03348
G1 X-1.902 Y3.000 E0.03347
G1 X-1.864 Y2.623 E0.03347
G1 X-1.754 Y2.265 E0.03308
G1 X-1.620 Y2.005 E0.02589
G1 X-1.394 Y1.706 E0.03309
G1 X-1.110 Y1.456 E0.03348
G1 X-0.782 Y1.267 E0.03347
G1 X-0.423 Y1.146 E0.03348
G1 X-0.047 Y1.099 E0.03347
G1 X0.330 Y1.127 E0.03348
G1 X0.695 Y1.230 E0.03347
G1 X1.032 Y1.402 E0.03348
G1 X1.328 Y1.639 E0.03348
G1 X1.571 Y1.929 E0.03347
G1 X1.752 Y2.261 E0.03348
G1 X1.864 Y2.623 E0.03348
G1 X1.902 Y3.000 E0.03347
G1 X1.864 Y3.377 E0.03347
G1 X1.752 Y3.739 E0.03347
G1 X1.571 Y4.071 E0.03346
G1 X1.334 Y4.355 E0.03272
G1 X1.107 Y4.546 E0.02624
G1 X0.782 Y4.733 E0.03311
G1 X0.423 Y4.854 E0.03348
G1 X0.047 Y4.901 E0.03347
G1 X-0.330 Y4.873 E0.03348
G1 X-0.695 Y4.770 E0.03347
G1 X-1.032 Y4.598 E0.03347
G1 X-1.328 Y4.361 E0.03347
G1 X-1.533 Y4.117 E0.02817
G1 X-1.571 Y4.071 F12000.000
G1 E-3.20000 F3000.00000
G1 Z0.750 F12000.000
G1 X-7.452 Y31.271 F12000.000
G1 Z0.350 F12000.000
G1 E3.20000 F3000.00000
G1 F300
G1 X-6.846 Y31.441 E0.05558
G1 X-6.287 Y31.728 E0.05551
G1 X-5.815 Y32.104 E0.05336
G1 X-5.473 Y32.490 E0.04563
G1 X-5.155 Y33.011 E0.05391
G1 X-4.940 Y33.602 E0.05559
G1 X-4.846 Y34.223 E0.05558
G1 X-4.877 Y34.851 E0.05558
G1 X-5.033 Y35.461 E0.05558
G1 X-5.305 Y36.027 E0.05558
G1 X-5.685 Y36.529 E0.05559
G1 X-6.157 Y36.945 E0.05558
G1 X-6.701 Y37.259 E0.05558
G1 X-7.297 Y37.459 E0.05558
G1 X-7.921 Y37.538 E0.05559
G1 X-8.548 Y37.491 E0.05558
G1 X-9.154 Y37.320 E0.05558
G1 X-9.713 Y37.033 E0.05558
G1 X-10.205 Y36.641 E0.05558
G1 X-10.609 Y36.160 E0.05559
G1 X-10.910 Y35.607 E0.05558
G1 X-11.089 Y35.026 E0.05380
G1 X-11.153 Y34.518 E0.04522
G1 X-11.123 Y33.910 E0.05380
G1 X-10.967 Y33.301 E0.05558
G1 X-10.695 Y32.734 E0.05558
G1 X-10.315 Y32.233 E0.05558
G1 X-9.843 Y31.817 E0.05559
G1 X-9.299 Y31.502 E0.05558
G1 X-8.703 Y31.302 E0.05558
G1 X-8.079 Y31.224 E0.05558
G1 X-7.511 Y31.267 E0.05029
G1 X-7.561 Y31.889 F12000.000
G1 F300
G1 X-7.076 Y32.026 E0.04452
G1 X-6.628 Y32.256 E0.04449
G1 X-6.247 Y32.559 E0.04304
G1 X-5.977 Y32.863 E0.03594
G1 X-5.721 Y33.283 E0.04351
G1 X-5.548 Y33.757 E0.04453
G1 X-5.473 Y34.255 E0.04453
G1 X-5.498 Y34.758 E0.04453
G1 X-5.623 Y35.246 E0.04453
G1 X-5.841 Y35.700 E0.04453
G1 X-6.146 Y36.102 E0.04453
G1 X-6.523 Y36.435 E0.04453
G1 X-6.960 Y36.687 E0.04453
G1 X-7.437 Y36.847 E0.04453
G1 X-7.937 Y36.910 E0.04453
G1 X-8.439 Y36.872 E0.04453
G1 X-8.924 Y36.736 E0.04453
G1 X-9.372 Y36.506 E0.04453
G1 X-9.766 Y36.192 E0.04453
G1 X-10.090 Y35.806 E0.04453
G1 X-10.331 Y35.363 E0.04453
G1 X-10.476 Y34.894 E0.04344
G1 X-10.526 Y34.495 E0.03556
G1 X-10.502 Y34.004 E0.04344
G1 X-10.377 Y33.516 E0.04453
G1 X-10.159 Y33.062 E0.04453
G1 X-9.854 Y32.660 E0.04453
G1 X-9.477 Y32.327 E0.04453
G1 X-9.040 Y32.075 E0.04453
G1 X-8.563 Y31.914 E0.04453
G1 X-8.063 Y31.852 E0.04453
G1 X-7.620 Y31.885 E0.03923
G1 X-7.670 Y32.508 F12000.000
G1 F300
G1 X-7.305 Y32.611 E0.03347
G1 X-6.968 Y32.783 E0.03346
G1 X-6.679 Y33.014 E0.03272
G1 X-6.482 Y33.236 E0.02625
G1 X-6.287 Y33.556 E0.03311
G1 X-6.157 Y33.912 E0.03348
G1 X-6.101 Y34.286 E0.03347
G1 X-6.119 Y34.664 E0.03348
G1 X-6.213 Y35.031 E0.03347
G1 X-6.377 Y35.372 E0.03348
G1 X-6.606 Y35.674 E0.03348
G1 X-6.890 Y35.925 E0.03348
G1 X-7.218 Y36.114 E0.03347
G1 X-7.577 Y36.235 E0.03347
G1 X-7.953 Y36.282 E0.03348
G1 X-8.330 Y36.254 E0.03348
G1 X-8.695 Y36.151 E0.03347
G1 X-9.032 Y35.978 E0.03347
G1 X-9.328 Y35.742 E0.03348
G1 X-9.571 Y35.452 E0.03348
G1 X-9.752 Y35.120 E0.03348
G1 X-9.863 Y34.762 E0.03308
G1 X-9.899 Y34.471 E0.02589
G1 X-9.881 Y34.097 E0.03308
G1 X-9.787 Y33.730 E0.03348
G1 X-9.623 Y33.389 E0.03347
G1 X-9.394 Y33.087 E0.03348
G1 X-9.110 Y32.837 E0.03348
G1 X-8.782 Y32.647 E0.03347
G1 X-8.423 Y32.527 E0.03347
G1 X-8.047 Y32.480 E0.03348
G1 X-7.730 Y32.503 E0.02818
G1 X-7.670 Y32.508 F12000.000
G1 E-3.20000 F3000.00000
G1 Z0.750 F12000.000
G1 X4.904 Y33.766 F12000.000
G1 Z0.350 F12000.000
G1 E3.20000 F3000.00000
G1 F300
G1 X5.090 Y33.154 E0.05654
G1 X5.391 Y32.602 E0.05558
G1 X5.795 Y32.120 E0.05558
G1 X6.272 Y31.740 E0.05392
G1 X6.726 Y31.494 E0.04563
G1 X7.298 Y31.302 E0.05335
G1 X7.921 Y31.224 E0.05552
G1 X8.548 Y31.271 E0.05559
G1 X9.154 Y31.441 E0.05558
G1 X9.713 Y31.728 E0.05558
G1 X10.205 Y32.120 E0.05559
G1 X10.609 Y32.602 E0.05558
G1 X10.910 Y33.154 E0.05558
G1 X11.095 Y33.755 E0.05558
G1 X11.158 Y34.381 E0.05558
G1 X11.095 Y35.007 E0.05559
G1 X10.910 Y35.607 E0.05558
G1 X10.609 Y36.160 E0.05558
G1 X10.205 Y36.641 E0.05558
G1 X9.713 Y37.033 E0.05558
G1 X9.170 Y37.312 E0.05392
G1 X8.677 Y37.463 E0.04563
G1 X8.078 Y37.538 E0.05335
G1 X7.452 Y37.491 E0.05552
G1 X6.846 Y37.320 E0.05558
G1 X6.287 Y37.033 E0.05558
G1 X5.795 Y36.641 E0.05558
G1 X5.391 Y36.160 E0.05559
G1 X5.090 Y35.607 E0.05558
G1 X4.905 Y35.007 E0.05558
G1 X4.842 Y34.381 E0.05558
G1 X4.898 Y33.826 E0.04930
G1 X5.520 Y33.880 F12000.000
G1 F300
G1 X5.669 Y33.398 E0.04453
G1 X5.910 Y32.956 E0.04453
G1 X6.234 Y32.570 E0.04453
G1 X6.618 Y32.263 E0.04352
G1 X6.976 Y32.069 E0.03594
G1 X7.438 Y31.914 E0.04303
G1 X7.937 Y31.852 E0.04449
G1 X8.439 Y31.889 E0.04453
G1 X8.924 Y32.026 E0.04453
G1 X9.373 Y32.256 E0.04453
G1 X9.766 Y32.570 E0.04453
G1 X10.090 Y32.956 E0.04453
G1 X10.331 Y33.398 E0.04453
G1 X10.480 Y33.880 E0.04453
G1 X10.530 Y34.381 E0.04453
G1 X10.480 Y34.882 E0.04453
G1 X10.331 Y35.363 E0.04453
G1 X10.090 Y35.806 E0.04453
G1 X9.766 Y36.192 E0.04453
G1 X9.373 Y36.506 E0.04453
G1 X8.934 Y36.730 E0.04352
G1 X8.546 Y36.850 E0.03594
G1 X8.063 Y36.910 E0.04304
G1 X7.561 Y36.872 E0.04449
G1 X7.076 Y36.736 E0.04453
G1 X6.627 Y36.506 E0.04453
G1 X6.234 Y36.192 E0.04453
G1 X5.910 Y35.806 E0.04453
G1 X5.669 Y35.363 E0.04453
G1 X5.520 Y34.882 E0.04453
G1 X5.470 Y34.381 E0.04453
G1 X5.514 Y33.939 E0.03922
G1 X6.136 Y34.004 F12000.000
G1 F300
G1 X6.248 Y33.642 E0.03348
G1 X6.429 Y33.310 E0.03347
G1 X6.672 Y33.019 E0.03347
G1 X6.965 Y32.786 E0.03311
G1 X7.226 Y32.644 E0.02625
G1 X7.577 Y32.527 E0.03272
G1 X7.953 Y32.480 E0.03346
G1 X8.330 Y32.508 E0.03348
G1 X8.695 Y32.611 E0.03347
G1 X9.032 Y32.783 E0.03348
G1 X9.328 Y33.019 E0.03348
G1 X9.571 Y33.310 E0.03347
G1 X9.752 Y33.642 E0.03348
G1 X9.864 Y34.004 E0.03347
G1 X9.902 Y34.381 E0.03347
G1 X9.864 Y34.758 E0.03348
G1 X9.752 Y35.120 E0.03347
G1 X9.571 Y35.452 E0.03348
G1 X9.328 Y35.742 E0.03347
G1 X9.032 Y35.978 E0.03347
G1 X8.698 Y36.149 E0.03311
G1 X8.415 Y36.236 E0.02624
G1 X8.047 Y36.282 E0.03272
G1 X7.670 Y36.254 E0.03346
G1 X7.305 Y36.151 E0.03347
G1 X6.968 Y35.978 E0.03347
G1 X6.672 Y35.742 E0.03348
G1 X6.429 Y35.452 E0.03347
G1 X6.248 Y35.120 E0.03348
G1 X6.136 Y34.758 E0.03347
G1 X6.098 Y34.381 E0.03348
G1 X6.130 Y34.064 E0.02817
G1 X6.136 Y34.004 F12000.000
G1 E-3.20000 F3000.00000
G1 Z0.750 F12000.000
G1 X13.266 Y26.262 F12000.000
G1 Z0.350 F12000.000
G1 E3.20000 F3000.00000
G1 F480
G1 X13.546 Y26.252 E0.02479
G1 X15.342 Y31.642 E0.50218
G1 X15.350 Y42.729 E0.98002
G1 X-15.348 Y42.731 E2.71352
G1 X-15.350 Y31.717 E0.97359
G1 X-15.342 Y31.642 E0.00663
G1 X-13.552 Y26.270 E0.50048
G1 X-13.286 Y26.266 E0.02353
G1 X-13.058 Y26.889 E0.05857
G1 X-12.806 Y27.350 E0.04644
G1 X-12.559 Y27.693 E0.03745
G1 X-12.092 Y28.171 E0.05898
G1 X-11.649 Y28.489 E0.04822
G1 X-11.276 Y28.692 E0.03754
G1 X-10.644 Y28.920 E0.05945
G1 X-10.112 Y29.014 E0.04769
G1 X-9.770 Y29.031 E0.03027
G1 X9.790 Y29.031 E1.72898
G1 X10.293 Y28.993 E0.04457
G1 X10.953 Y28.826 E0.06022
G1 X11.474 Y28.592 E0.05047
G1 X11.934 Y28.296 E0.04832
G1 X12.343 Y27.935 E0.04822
G1 X12.694 Y27.518 E0.04822
G1 X12.979 Y27.052 E0.04822
G1 X13.192 Y26.550 E0.04822
G1 X13.251 Y26.320 E0.02100
G1 E-3.20000 F3000.00000
G1 Z0.750 F12000.000
G1 X6.921 Y6.365 F12000.000
G1 Z0.350 F12000.000
G1 E3.20000 F3000.00000
G1 F480
G1 X6.706 Y6.527 E0.02379
G1 X6.150 Y6.148 E0.05952
G1 X5.656 Y5.925 E0.04785
G1 X5.251 Y5.800 E0.03750
G1 X4.609 Y5.703 E0.05737
G1 X1.674 Y5.702 E0.25941
G1 X2.222 Y5.241 E0.06328
G1 X2.609 Y4.778 E0.05335
G1 X2.910 Y4.227 E0.05552
G1 X3.095 Y3.626 E0.05558
G1 X3.158 Y3.000 E0.05558
G1 X3.095 Y2.374 E0.05558
G1 X2.910 Y1.773 E0.05558
G1 X2.609 Y1.221 E0.05558
G1 X2.205 Y0.739 E0.05558
G1 X1.713 Y0.347 E0.05558
G1 X1.154 Y0.060 E0.05558
G1 X0.548 Y-0.110 E0.05558
G1 X-0.079 Y-0.157 E0.05558
G1 X-0.703 Y-0.079 E0.05558
G1 X-1.299 Y0.122 E0.05559
G1 X-1.843 Y0.436 E0.05558
G1 X-2.315 Y0.852 E0.05558
G1 X-2.682 Y1.337 E0.05381
G1 X-2.916 Y1.793 E0.04522
G1 X-3.095 Y2.374 E0.05380
G1 X-3.158 Y3.000 E0.05558
G1 X-3.095 Y3.626 E0.05558
G1 X-2.910 Y4.227 E0.05558
G1 X-2.609 Y4.779 E0.05558
G1 X-2.205 Y5.261 E0.05558
G1 X-1.968 Y5.450 E0.02682
G1 X-2.056 Y5.701 E0.02352
G1 X-4.447 Y5.700 E0.21136
G1 X-4.932 Y5.737 E0.04302
G1 X-5.465 Y5.859 E0.04836
G1 X-5.975 Y6.059 E0.04837
G1 X-6.448 Y6.333 E0.04837
G1 X-6.692 Y6.528 E0.02758
G1 X-6.922 Y6.368 E0.02476
G1 X-3.488 Y-3.939 E0.96023
G1 X-3.378 Y-4.412 E0.04298
G1 X-3.350 Y-4.808 E0.03509
G1 X-3.350 Y-27.288 E1.98704
G1 X-3.400 Y-27.801 E0.04550
G1 X-3.530 Y-28.271 E0.04317
G1 X-3.719 Y-28.697 E0.04115
G1 X-3.967 Y-29.089 E0.04103
G1 X-4.270 Y-29.441 E0.04103
G1 X-4.622 Y-29.744 E0.04103
G1 X-5.014 Y-29.992 E0.04103
G1 X-5.456 Y-30.188 E0.04272
G1 X-8.341 Y-30.912 E0.26294
G1 X-8.286 Y-31.251 E0.03042
G1 X-7.921 Y-31.224 E0.03236
G1 X-7.297 Y-31.302 E0.05558
G1 X-6.701 Y-31.502 E0.05558
G1 X-6.157 Y-31.817 E0.05558
G1 X-5.685 Y-32.233 E0.05558
G1 X-5.305 Y-32.734 E0.05558
G1 X-5.033 Y-33.301 E0.05558
G1 X-4.877 Y-33.910 E0.05558
