; generated by Slic3r 1.3.0 on 2023-08-19 at 22:50:03

; external perimeters extrusion width = 0.40mm (3.03mm^3/s)
; perimeters extrusion width = 0.40mm (3.03mm^3/s)
; infill extrusion width = 0.40mm (3.03mm^3/s)
; solid infill extrusion width = 0.40mm (3.03mm^3/s)
; top infill extrusion width = 0.40mm (3.03mm^3/s)

M107
M83
T0
M116


; Filament gcode

G21 ; set units to millimeters
G90 ; use absolute coordinates
M83 ; use relative distances for extrusion
G1 E-3.20000 F3000.00000
G1 Z0.400 F12000.000
G1 X23.575 Y42.880 F12000.000
G1 Z0.350 F12000.000
G1 E3.20000 F3000.00000
G1 F480
G1 X23.541 Y43.580 E0.06193
G1 X23.361 Y44.703 E0.10056
G1 X23.292 Y44.979 E0.02513
G1 X22.922 Y46.054 E0.10050
G1 X22.835 Y46.249 E0.01886
G1 X22.376 Y47.109 E0.08614
G1 X22.262 Y47.289 E0.01886
G1 X21.681 Y48.072 E0.08618
G1 X21.542 Y48.233 E0.01885
G1 X20.853 Y48.923 E0.08614
G1 X20.691 Y49.062 E0.01886
G1 X19.908 Y49.642 E0.08615
G1 X19.728 Y49.757 E0.01886
G1 X18.868 Y50.216 E0.08615
G1 X18.673 Y50.303 E0.01886
G1 X17.755 Y50.631 E0.08621
G1 X17.549 Y50.688 E0.01885
G1 X16.594 Y50.878 E0.08610
G1 X16.382 Y50.904 E0.01886
G1 X15.571 Y50.954 E0.07180
G1 X-15.499 Y50.956 E2.74638
G1 X-16.199 Y50.922 E0.06195
G1 X-17.322 Y50.742 E0.10055
G1 X-17.598 Y50.672 E0.02512
G1 X-18.673 Y50.303 E0.10052
G1 X-18.868 Y50.216 E0.01886
G1 X-19.730 Y49.755 E0.08640
G1 X-19.911 Y49.640 E0.01894
G1 X-20.815 Y48.953 E0.10037
G1 X-21.025 Y48.762 E0.02504
G1 X-21.797 Y47.930 E0.10035
G1 X-21.928 Y47.762 E0.01886
G1 X-22.470 Y46.952 E0.08615
G1 X-22.575 Y46.766 E0.01886
G1 X-22.992 Y45.885 E0.08616
G1 X-23.069 Y45.686 E0.01886
G1 X-23.351 Y44.753 E0.08615
G1 X-23.398 Y44.545 E0.01886
G1 X-23.541 Y43.580 E0.08624
G1 X-23.575 Y42.880 E0.06193
G1 X-23.575 Y-42.880 E7.58053
G1 X-23.557 Y-43.367 E0.04303
G1 X-23.541 Y-43.580 E0.01891
G1 X-23.361 Y-44.703 E0.10057
G1 X-23.292 Y-44.979 E0.02513
G1 X-22.922 Y-46.054 E0.10049
G1 X-22.835 Y-46.249 E0.01886
G1 X-22.376 Y-47.109 E0.08615
G1 X-22.262 Y-47.289 E0.01886
G1 X-21.681 Y-48.072 E0.08616
G1 X-21.542 Y-48.233 E0.01886
G1 X-20.852 Y-48.923 E0.08616
G1 X-20.691 Y-49.062 E0.01886
G1 X-19.908 Y-49.643 E0.08615
G1 X-19.728 Y-49.757 E0.01886
G1 X-18.868 Y-50.216 E0.08615
G1 X-18.673 Y-50.303 E0.01886
G1 X-17.755 Y-50.631 E0.08617
G1 X-17.550 Y-50.688 E0.01886
G1 X-16.594 Y-50.878 E0.08615
G1 X-15.572 Y-50.954 E0.09062
G1 X15.501 Y-50.956 E2.74652
G1 X16.152 Y-50.924 E0.05764
G1 X16.434 Y-50.896 E0.02504
G1 X17.706 Y-50.643 E0.11466
G1 X17.978 Y-50.560 E0.02512
G1 X19.178 Y-50.063 E0.11481
G1 X19.429 Y-49.929 E0.02513
G1 X20.508 Y-49.208 E0.11479
G1 X20.728 Y-49.027 E0.02513
G1 X21.646 Y-48.109 E0.11480
G1 X21.827 Y-47.889 E0.02512
G1 X22.548 Y-46.809 E0.11479
G1 X22.682 Y-46.559 E0.02512
G1 X23.179 Y-45.359 E0.11480
G1 X23.262 Y-45.087 E0.02513
G1 X23.515 Y-43.812 E0.11488
G1 X23.575 Y-42.880 E0.08254
G1 X23.575 Y42.820 E7.57523
G1 E-3.20000 F3000.00000
G1 Z0.750 F12000.000
G1 X11.762 Y11.835 F12000.000
G1 Z0.350 F12000.000
G1 E3.20000 F3000.00000
G1 F480
G1 X12.499 Y11.781 E0.06526
G1 X12.959 Y11.815 E0.04080
G1 X13.523 Y11.957 E0.05145
G1 X14.060 Y12.211 E0.05246
G1 X14.536 Y12.565 E0.05246
G1 X14.934 Y13.005 E0.05245
G1 X15.239 Y13.514 E0.05246
G1 X15.439 Y14.073 E0.05246
G1 X15.522 Y14.637 E0.05036
G1 X15.515 Y25.666 E0.97490
G1 X15.439 Y26.105 E0.03935
G1 X15.346 Y26.412 E0.02837
G1 X15.175 Y26.797 E0.03725
G1 X15.010 Y27.072 E0.02837
G1 X14.751 Y27.405 E0.03725
G1 X14.524 Y27.631 E0.02837
G1 X14.191 Y27.891 E0.03725
G1 X13.926 Y28.050 E0.02737
G1 X13.642 Y28.184 E0.02770
G1 X13.246 Y28.314 E0.03689
G1 X12.927 Y28.377 E0.02872
G1 X12.536 Y28.406 E0.03466
G1 X-10.092 Y28.403 E2.00013
G1 X-10.399 Y28.373 E0.02732
G1 X-10.823 Y28.278 E0.03834
G1 X-11.238 Y28.117 E0.03936
G1 X-11.611 Y27.906 E0.03791
G1 X-11.873 Y27.713 E0.02878
G1 X-12.187 Y27.413 E0.03839
G1 X-12.454 Y27.071 E0.03834
G1 X-12.625 Y26.785 E0.02945
G1 X-12.843 Y26.258 E0.05039
G1 X-12.958 Y25.675 E0.05253
G1 X-12.958 Y25.081 E0.05253
G1 X-12.841 Y24.498 E0.05253
G1 X-12.613 Y23.949 E0.05253
G1 X-12.283 Y23.456 E0.05253
G1 X-11.742 Y22.916 E0.06752
G1 X-12.372 Y22.977 E0.05600
G1 X-12.801 Y22.965 E0.03791
G1 X-13.255 Y22.886 E0.04077
G1 X-13.787 Y22.694 E0.04991
G1 X-14.184 Y22.469 E0.04037
G1 X-14.544 Y22.187 E0.04041
G1 X-14.926 Y21.765 E0.05032
G1 X-15.171 Y21.379 E0.04040
G1 X-15.356 Y20.961 E0.04041
G1 X-15.494 Y20.409 E0.05032
G1 X-15.525 Y19.989 E0.03717
G1 X-15.525 Y9.332 E0.94201
G1 X-15.471 Y8.790 E0.04819
G1 X-15.299 Y8.221 E0.05249
G1 X-15.019 Y7.698 E0.05250
G1 X-14.642 Y7.239 E0.05250
G1 X-14.183 Y6.862 E0.05250
G1 X-13.659 Y6.582 E0.05249
G1 X-13.091 Y6.409 E0.05249
G1 X-12.548 Y6.356 E0.04821
G1 X10.240 Y6.366 E2.01435
G1 X10.823 Y6.482 E0.05251
G1 X11.372 Y6.709 E0.05253
G1 X11.866 Y7.040 E0.05253
G1 X12.286 Y7.460 E0.05253
G1 X12.616 Y7.954 E0.05253
G1 X12.843 Y8.503 E0.05253
G1 X12.958 Y9.086 E0.05253
G1 X12.958 Y9.657 E0.05039
G1 X12.909 Y9.986 E0.02945
G1 X12.793 Y10.404 E0.03830
G1 X12.619 Y10.796 E0.03791
G1 X12.451 Y11.075 E0.02878
G1 X12.191 Y11.408 E0.03733
G1 X11.805 Y11.793 E0.04823
G1 X11.912 Y12.481 F12000.000
G1 F480
G1 X12.155 Y12.433 E0.02194
G1 X12.498 Y12.408 E0.03044
G1 X12.859 Y12.434 E0.03195
G1 X13.311 Y12.548 E0.04122
G1 X13.736 Y12.750 E0.04158
G1 X14.114 Y13.030 E0.04159
G1 X14.430 Y13.379 E0.04158
G1 X14.671 Y13.783 E0.04158
G1 X14.830 Y14.226 E0.04158
G1 X14.898 Y14.683 E0.04083
G1 X14.890 Y25.612 E0.96608
G1 X14.830 Y25.960 E0.03122
G1 X14.759 Y26.194 E0.02158
G1 X14.619 Y26.509 E0.03046
G1 X14.494 Y26.718 E0.02158
G1 X14.282 Y26.990 E0.03046
G1 X14.109 Y27.162 E0.02158
G1 X13.837 Y27.374 E0.03046
G1 X13.631 Y27.498 E0.02123
G1 X13.411 Y27.602 E0.02157
G1 X13.087 Y27.709 E0.03010
G1 X12.844 Y27.757 E0.02194
G1 X12.513 Y27.781 E0.02927
G1 X-10.061 Y27.778 E1.99539
G1 X-10.300 Y27.755 E0.02121
G1 X-10.641 Y27.678 E0.03086
G1 X-10.970 Y27.551 E0.03123
G1 X-11.270 Y27.381 E0.03048
G1 X-11.470 Y27.233 E0.02197
G1 X-11.723 Y26.992 E0.03088
G1 X-11.938 Y26.717 E0.03086
G1 X-12.065 Y26.504 E0.02198
G1 X-12.242 Y26.076 E0.04087
G1 X-12.333 Y25.614 E0.04164
G1 X-12.333 Y25.143 E0.04164
G1 X-12.241 Y24.681 E0.04164
G1 X-12.060 Y24.246 E0.04164
G1 X-11.798 Y23.855 E0.04164
G1 X-11.464 Y23.522 E0.04164
G1 X-11.079 Y23.266 E0.04087
G1 X11.493 Y12.630 E2.20563
G1 X11.855 Y12.501 E0.03394
G1 X11.912 Y12.481 F12000.000
G1 X11.259 Y11.388 F12000.000
G1 F480
G1 X11.071 Y11.500 E0.01926
G1 X-11.489 Y22.130 E2.20448
G1 X-11.806 Y22.251 E0.03001
G1 X-12.147 Y22.327 E0.03084
G1 X-12.394 Y22.351 E0.02194
G1 X-12.738 Y22.342 E0.03045
G1 X-13.094 Y22.279 E0.03194
G1 X-13.525 Y22.125 E0.04044
G1 X-13.835 Y21.948 E0.03157
G1 X-14.117 Y21.728 E0.03158
G1 X-14.427 Y21.386 E0.04082
G1 X-14.618 Y21.084 E0.03158
G1 X-14.763 Y20.757 E0.03158
G1 X-14.875 Y20.309 E0.04082
G1 X-14.900 Y19.966 E0.03039
G1 X-14.900 Y9.363 E0.93726
G1 X-14.856 Y8.912 E0.04004
G1 X-14.719 Y8.462 E0.04162
G1 X-14.497 Y8.047 E0.04162
G1 X-14.198 Y7.683 E0.04162
G1 X-13.834 Y7.384 E0.04162
G1 X-13.419 Y7.162 E0.04161
G1 X-12.969 Y7.025 E0.04162
G1 X-12.518 Y6.981 E0.04004
G1 X10.179 Y6.991 E2.00619
G1 X10.641 Y7.083 E0.04163
G1 X11.076 Y7.263 E0.04164
G1 X11.467 Y7.525 E0.04164
G1 X11.800 Y7.858 E0.04164
G1 X12.062 Y8.250 E0.04164
G1 X12.242 Y8.685 E0.04164
G1 X12.333 Y9.147 E0.04164
G1 X12.333 Y9.610 E0.04088
G1 X12.296 Y9.856 E0.02198
G1 X12.203 Y10.192 E0.03085
G1 X12.063 Y10.507 E0.03048
G1 X11.935 Y10.720 E0.02197
G1 X11.723 Y10.992 E0.03050
G1 X11.550 Y11.165 E0.02160
G1 X11.307 Y11.353 E0.02713
G1 X11.274 Y11.605 F12000.000
G1 E-3.20000 F3000.00000
G1 Z0.750 F12000.000
G1 X2.090 Y4.425 F12000.000
G1 Z0.350 F12000.000
G1 E3.20000 F3000.00000
G1 F300
G1 X1.766 Y4.811 E0.04453
G1 X1.373 Y5.125 E0.04453
G1 X0.925 Y5.355 E0.04449
G1 X0.456 Y5.487 E0.04308
G1 X0.052 Y5.528 E0.03589
G1 X-0.439 Y5.491 E0.04351
G1 X-0.924 Y5.355 E0.04453
G1 X-1.373 Y5.125 E0.04453
G1 X-1.766 Y4.811 E0.04453
G1 X-2.090 Y4.425 E0.04453
G1 X-2.331 Y3.983 E0.04453
G1 X-2.476 Y3.513 E0.04344
G1 X-2.526 Y3.114 E0.03556
G1 X-2.502 Y2.623 E0.04344
G1 X-2.377 Y2.135 E0.04453
G1 X-2.159 Y1.681 E0.04453
G1 X-1.854 Y1.279 E0.04453
G1 X-1.477 Y0.946 E0.04453
G1 X-1.040 Y0.694 E0.04453
G1 X-0.563 Y0.534 E0.04453
G1 X-0.063 Y0.471 E0.04453
G1 X0.439 Y0.509 E0.04453
G1 X0.924 Y0.645 E0.04453
G1 X1.373 Y0.875 E0.04453
G1 X1.766 Y1.189 E0.04453
G1 X2.090 Y1.575 E0.04453
G1 X2.331 Y2.017 E0.04453
G1 X2.480 Y2.499 E0.04453
G1 X2.530 Y3.000 E0.04453
G1 X2.480 Y3.501 E0.04453
G1 X2.331 Y3.983 E0.04453
G1 X2.119 Y4.372 E0.03923
G1 X1.571 Y4.071 F12000.000
G1 F300
G1 X1.328 Y4.361 E0.03347
G1 X1.032 Y4.598 E0.03347
G1 X0.695 Y4.770 E0.03346
G1 X0.338 Y4.871 E0.03276
G1 X0.043 Y4.901 E0.02621
G1 X-0.330 Y4.873 E0.03311
G1 X-0.695 Y4.770 E0.03348
G1 X-1.032 Y4.598 E0.03347
G1 X-1.328 Y4.361 E0.03347
G1 X-1.571 Y4.071 E0.03347
G1 X-1.752 Y3.739 E0.03348
G1 X-1.863 Y3.381 E0.03308
G1 X-1.899 Y3.090 E0.02589
G1 X-1.881 Y2.717 E0.03308
G1 X-1.787 Y2.350 E0.03347
G1 X-1.623 Y2.008 E0.03348
G1 X-1.394 Y1.706 E0.03348
G1 X-1.110 Y1.456 E0.03347
G1 X-0.782 Y1.267 E0.03347
G1 X-0.423 Y1.146 E0.03348
G1 X-0.047 Y1.099 E0.03348
G1 X0.330 Y1.127 E0.03347
G1 X0.695 Y1.230 E0.03347
G1 X1.032 Y1.402 E0.03347
G1 X1.328 Y1.639 E0.03347
G1 X1.571 Y1.929 E0.03348
G1 X1.752 Y2.261 E0.03348
G1 X1.864 Y2.623 E0.03348
G1 X1.902 Y3.000 E0.03347
G1 X1.864 Y3.377 E0.03348
G1 X1.752 Y3.739 E0.03348
G1 X1.600 Y4.019 E0.02817
G1 X1.571 Y4.071 F12000.000
G1 E-3.20000 F3000.00000
G1 Z0.750 F12000.000
G1 X-7.427 Y-31.278 F12000.000
G1 Z0.350 F12000.000
G1 E3.20000 F3000.00000
G1 F300
G1 X-7.940 Y-31.225 E0.04558
G1 X-8.548 Y-31.271 E0.05391
G1 X-9.154 Y-31.441 E0.05558
G1 X-9.713 Y-31.728 E0.05558
G1 X-10.205 Y-32.120 E0.05558
G1 X-10.609 Y-32.602 E0.05558
G1 X-10.910 Y-33.154 E0.05558
G1 X-11.090 Y-33.737 E0.05391
G1 X-11.153 Y-34.249 E0.04558
G1 X-11.122 Y-34.852 E0.05340
G1 X-10.967 Y-35.461 E0.05552
G1 X-10.695 Y-36.027 E0.05558
G1 X-10.315 Y-36.529 E0.05558
G1 X-9.843 Y-36.945 E0.05558
G1 X-9.299 Y-37.259 E0.05558
G1 X-8.703 Y-37.459 E0.05559
G1 X-8.079 Y-37.538 E0.05558
G1 X-7.452 Y-37.491 E0.05558
G1 X-6.846 Y-37.320 E0.05558
G1 X-6.287 Y-37.033 E0.05559
G1 X-5.795 Y-36.641 E0.05558
G1 X-5.391 Y-36.160 E0.05558
G1 X-5.090 Y-35.607 E0.05558
G1 X-4.905 Y-35.007 E0.05558
G1 X-4.842 Y-34.381 E0.05558
G1 X-4.905 Y-33.755 E0.05558
G1 X-5.090 Y-33.154 E0.05558
G1 X-5.391 Y-32.602 E0.05558
G1 X-5.795 Y-32.120 E0.05558
G1 X-6.287 Y-31.728 E0.05558
G1 X-6.846 Y-31.442 E0.05552
G1 X-7.369 Y-31.294 E0.04810
G1 X-7.544 Y-31.894 F12000.000
G1 F300
G1 X-7.948 Y-31.853 E0.03589
G1 X-8.439 Y-31.889 E0.04351
G1 X-8.924 Y-32.026 E0.04453
G1 X-9.373 Y-32.256 E0.04453
G1 X-9.766 Y-32.570 E0.04453
G1 X-10.090 Y-32.956 E0.04453
G1 X-10.331 Y-33.398 E0.04453
G1 X-10.476 Y-33.869 E0.04351
G1 X-10.526 Y-34.272 E0.03589
G1 X-10.501 Y-34.758 E0.04308
G1 X-10.377 Y-35.246 E0.04449
G1 X-10.159 Y-35.700 E0.04453
G1 X-9.854 Y-36.102 E0.04453
G1 X-9.477 Y-36.435 E0.04453
G1 X-9.040 Y-36.687 E0.04453
G1 X-8.563 Y-36.847 E0.04453
G1 X-8.063 Y-36.910 E0.04453
G1 X-7.561 Y-36.872 E0.04453
G1 X-7.076 Y-36.736 E0.04453
G1 X-6.627 Y-36.506 E0.04453
G1 X-6.234 Y-36.192 E0.04453
G1 X-5.910 Y-35.806 E0.04453
G1 X-5.669 Y-35.363 E0.04453
G1 X-5.520 Y-34.882 E0.04453
G1 X-5.470 Y-34.381 E0.04453
G1 X-5.520 Y-33.880 E0.04453
G1 X-5.669 Y-33.398 E0.04453
G1 X-5.910 Y-32.956 E0.04453
G1 X-6.234 Y-32.570 E0.04453
G1 X-6.627 Y-32.256 E0.04453
G1 X-7.075 Y-32.026 E0.04449
G1 X-7.487 Y-31.910 E0.03778
G1 X-7.662 Y-32.510 F12000.000
G1 F300
G1 X-7.957 Y-32.480 E0.02620
G1 X-8.330 Y-32.508 E0.03311
G1 X-8.695 Y-32.611 E0.03348
G1 X-9.032 Y-32.783 E0.03347
G1 X-9.328 Y-33.019 E0.03348
G1 X-9.571 Y-33.310 E0.03347
G1 X-9.752 Y-33.642 E0.03347
G1 X-9.863 Y-34.000 E0.03311
G1 X-9.899 Y-34.294 E0.02621
G1 X-9.880 Y-34.664 E0.03276
G1 X-9.787 Y-35.031 E0.03346
G1 X-9.623 Y-35.372 E0.03348
G1 X-9.394 Y-35.674 E0.03347
G1 X-9.110 Y-35.925 E0.03348
G1 X-8.782 Y-36.114 E0.03347
G1 X-8.423 Y-36.235 E0.03348
G1 X-8.047 Y-36.282 E0.03347
G1 X-7.670 Y-36.254 E0.03347
G1 X-7.305 Y-36.151 E0.03347
G1 X-6.968 Y-35.978 E0.03348
G1 X-6.672 Y-35.742 E0.03348
G1 X-6.429 Y-35.452 E0.03347
G1 X-6.248 Y-35.120 E0.03348
G1 X-6.136 Y-34.758 E0.03347
G1 X-6.098 Y-34.381 E0.03348
G1 X-6.136 Y-34.004 E0.03347
G1 X-6.248 Y-33.642 E0.03347
G1 X-6.429 Y-33.310 E0.03347
G1 X-6.672 Y-33.019 E0.03348
G1 X-6.968 Y-32.783 E0.03347
G1 X-7.305 Y-32.611 E0.03346
G1 X-7.604 Y-32.526 E0.02746
G1 X-7.662 Y-32.510 F12000.000
G1 E-3.20000 F3000.00000
G1 Z0.750 F12000.000
G1 X4.904 Y-33.767 F12000.000
G1 Z0.350 F12000.000
G1 E3.20000 F3000.00000
G1 F300
G1 X4.842 Y-34.381 E0.05451
G1 X4.905 Y-35.007 E0.05558
G1 X5.090 Y-35.607 E0.05558
G1 X5.391 Y-36.160 E0.05558
G1 X5.795 Y-36.641 E0.05558
G1 X6.287 Y-37.033 E0.05558
G1 X6.828 Y-37.311 E0.05380
G1 X7.317 Y-37.462 E0.04522
G1 X7.921 Y-37.538 E0.05381
G1 X8.548 Y-37.491 E0.05558
G1 X9.154 Y-37.320 E0.05558
G1 X9.713 Y-37.033 E0.05558
G1 X10.205 Y-36.641 E0.05558
G1 X10.609 Y-36.160 E0.05558
G1 X10.910 Y-35.607 E0.05558
G1 X11.095 Y-35.007 E0.05558
G1 X11.158 Y-34.381 E0.05558
G1 X11.095 Y-33.755 E0.05558
G1 X10.910 Y-33.154 E0.05558
G1 X10.609 Y-32.602 E0.05558
G1 X10.205 Y-32.120 E0.05558
G1 X9.713 Y-31.728 E0.05558
G1 X9.154 Y-31.441 E0.05558
G1 X8.568 Y-31.276 E0.05380
G1 X8.059 Y-31.226 E0.04522
G1 X7.452 Y-31.271 E0.05380
G1 X6.846 Y-31.441 E0.05558
G1 X6.287 Y-31.728 E0.05558
G1 X5.795 Y-32.120 E0.05558
G1 X5.391 Y-32.602 E0.05558
G1 X5.090 Y-33.154 E0.05559
G1 X4.919 Y-33.709 E0.05135
G1 X5.520 Y-33.880 F12000.000
G1 F300
G1 X5.470 Y-34.381 E0.04453
G1 X5.520 Y-34.882 E0.04453
G1 X5.669 Y-35.363 E0.04453
G1 X5.910 Y-35.806 E0.04453
G1 X6.234 Y-36.192 E0.04453
G1 X6.627 Y-36.506 E0.04453
G1 X7.065 Y-36.730 E0.04344
G1 X7.449 Y-36.849 E0.03556
G1 X7.937 Y-36.910 E0.04345
G1 X8.439 Y-36.872 E0.04453
G1 X8.924 Y-36.736 E0.04453
G1 X9.373 Y-36.506 E0.04453
G1 X9.766 Y-36.192 E0.04453
G1 X10.090 Y-35.806 E0.04453
G1 X10.331 Y-35.363 E0.04453
G1 X10.480 Y-34.882 E0.04453
G1 X10.530 Y-34.381 E0.04453
G1 X10.480 Y-33.880 E0.04453
G1 X10.331 Y-33.398 E0.04453
G1 X10.090 Y-32.956 E0.04453
G1 X9.766 Y-32.570 E0.04453
G1 X9.373 Y-32.256 E0.04453
G1 X8.924 Y-32.026 E0.04453
G1 X8.451 Y-31.893 E0.04345
G1 X8.051 Y-31.853 E0.03556
G1 X7.561 Y-31.889 E0.04345
G1 X7.076 Y-32.026 E0.04453
G1 X6.627 Y-32.256 E0.04453
G1 X6.234 Y-32.570 E0.04453
G1 X5.910 Y-32.956 E0.04453
G1 X5.669 Y-33.398 E0.04453
G1 X5.538 Y-33.822 E0.03923
G1 X6.136 Y-34.004 F12000.000
G1 F300
G1 X6.098 Y-34.381 E0.03347
G1 X6.136 Y-34.758 E0.03348
G1 X6.248 Y-35.120 E0.03348
G1 X6.429 Y-35.452 E0.03347
G1 X6.672 Y-35.742 E0.03347
G1 X6.968 Y-35.978 E0.03348
G1 X7.301 Y-36.149 E0.03308
G1 X7.581 Y-36.235 E0.02589
G1 X7.953 Y-36.282 E0.03309
G1 X8.330 Y-36.254 E0.03347
G1 X8.695 Y-36.151 E0.03347
G1 X9.032 Y-35.978 E0.03348
G1 X9.328 Y-35.742 E0.03347
G1 X9.571 Y-35.452 E0.03348
G1 X9.752 Y-35.120 E0.03348
G1 X9.864 Y-34.758 E0.03348
G1 X9.902 Y-34.381 E0.03347
G1 X9.864 Y-34.004 E0.03347
G1 X9.752 Y-33.642 E0.03347
G1 X9.571 Y-33.310 E0.03348
G1 X9.328 Y-33.019 E0.03347
G1 X9.032 Y-32.783 E0.03347
G1 X8.695 Y-32.611 E0.03347
G1 X8.334 Y-32.509 E0.03309
G1 X8.043 Y-32.480 E0.02589
G1 X7.670 Y-32.508 E0.03309
G1 X7.305 Y-32.611 E0.03348
G1 X6.968 Y-32.783 E0.03348
G1 X6.672 Y-33.019 E0.03347
G1 X6.429 Y-33.310 E0.03347
G1 X6.248 Y-33.642 E0.03348
G1 X6.154 Y-33.947 E0.02817
G1 X6.136 Y-34.004 F12000.000
G1 E-3.20000 F3000.00000
G1 Z0.750 F12000.000
G1 X15.350 Y-42.731 F12000.000
G1 Z0.350 F12000.000
G1 E3.20000 F3000.00000
G1 F480
G1 X15.350 Y12.534 E4.88494
G1 X14.958 Y12.100 E0.05166
G1 X14.383 Y11.673 E0.06333
G1 X13.735 Y11.366 E0.06333
G1 X13.118 Y11.211 E0.05627
G1 X13.382 Y10.615 E0.05761
G1 X13.521 Y10.116 E0.04576
G1 X13.583 Y9.703 E0.03692
G1 X13.583 Y9.025 E0.05991
G1 X13.444 Y8.322 E0.06341
G1 X13.170 Y7.659 E0.06341
G1 X12.772 Y7.062 E0.06341
G1 X12.265 Y6.554 E0.06341
G1 X11.668 Y6.156 E0.06341
G1 X11.005 Y5.881 E0.06341
G1 X10.302 Y5.741 E0.06338
G1 X2.010 Y5.737 E0.73300
